X:1
T:Title
%%score 1 2 3 4
L:1/8
Q:1/4=55
M:2/4
K:Bb
V:1 treble nm="Church Organ, Church Organ"
V:2 treble nm="French Horn, French Horn"
V:3 bass nm="Trombone, Trombone"
V:4 bass nm="Tuba, Tuba"
V:1
 D/E/F DG | =E F3 | D/E/F DG | =E F3 | D/E/F GA | BB A2 | A/G/F GE | F D3 | D/E/F DG | =E F3 | %10
w: By~C.~S.~Kauffman * * * *||||||||||
 D/E/F DG | =E F3 | D/E/F GA | BB A2 | A/G/F GA | c B3- |[M:4/4] B d2 d- d/ z/ d2 d- | %17
w: |||||||
 dd/c/ BA B c3- | c e2 e- e/ z/ e2 e- | ee/d/ cB c d3- | d d2 d- d/ z/ d2 d- | dd/c/ BA B G3- | %22
w: |||||
 GB B2 A/G/F Bd | e d2 c- c/ z/ B3- | B2 z2 z4 |] %25
w: |||
V:2
 B,/C/D B,_D | _D =D3 | B,/C/D B,_D | _D =D3 | B,/C/D DD | DE E2 | E/E/C CC | C[K:bass] B,3 | %8
 B,/C/D B,[K:treble]_D | _D =D3 | B,/C/D B,_D | _D =D3 | B,/C/D DD | DE E2 | E/E/E EE | E D3- | %16
[M:4/4] D2 .[DF]2 .[DF]2 .[DF]2 | [DF] F2 F- F/ z/ z .[EFA]2 | .[EFA]2 .[FAc]2 .[FAc]2 .[FAc]2 | %19
 [FAc] [FA]2 F .[FA]2 .[FB]2 | .[FB]2 .[DFB]2 .[DFB]2 .[DFB]2 | %21
 [DFB] [DF]2 [B,F]- [B,F]/ z/ [B,E] [=B,F][CE]- | [CE]_D D2 D/D/=D FF | G F2 E- E/ z/ D3- | %24
 D2 z2 z4 |] %25
V:3
 F,/F,/B, F,=E, | G, F,3 | F,/F,/B, F,=E, | G, F,3 | F,/F,/B, B,F, | F,F, F,2 | C/B,/A, B,A, | %7
w: See~ the~ bright ly~ shin|ing~ star,~|As~ its~ ra diance~ beams~|a far,~|Guide~ the~ feet~ of~ wea|ry~ pil grims~|To~ the~ place~ where~ Je|
 A, F,3 | F,/F,/B, F,=E, | G, F,3 | F,/F,/B, F,=E, | G, F,3 | F,/F,/B, B,F, | F,F, F,2 | %14
w: sus~ lay.~|Like~ a~ bea con~ from~|its~ height,~|Burn ing~ brigh tly~ in~|the~ night,~|As~ the~ wise~ men~ fol|lowed~ on ward,~|
 C/B,/A, B,C | A, B,3- |[M:4/4] B, B,2 F,- F,/ z/ B,2 F,- | F, B,2 F,- F,/ z/ F, E,D, | %18
w: Safe ly~ guid ed~ all~|the~ way.~|* Shine~ on!~ * shine~ on!~|* Beau star~ * light;~ * *|
 C, F,2 C,- C,/ z/ F,2 C,- | C,F,E,D, C,B,,A,,G,, | F,, B,2 F,- F,/ z/ B,2 F,- | %21
w: * Shine~ on!~ * shine~ on!~|* Cheer the~ gloom y~ night;~ * *|* Shine~ on!~ * shine~ on!~|
 F, B,2 D,- D,/ z/ E, D,C,- | C,G, G,2 A,/B,/B, DB, | B, B,2 A,- A,/ z/ B,3- | B,2 z2 z4 |] %25
w: * Send rays~ * far,~ * *|* Shine~ on~ thro'~ the~ dark ness,~ Oh,~|thou~ fair est~ * star.~||
V:4
 B,,/B,,/B,, B,,B,, | B,, B,,3 | B,,/B,,/B,, B,,B,, | B,, B,,3 | B,,/B,,/B,, B,,B,, | B,,B,, B,,2 | %6
 F,/F,/F, F,F, | F, B,,3 | B,,/B,,/B,, B,,B,, | B,, B,,3 | B,,/B,,/B,, B,,B,, | B,, B,,3 | %12
 B,,/B,,/B,, B,,B,, | B,,C, C,2 | F,/F,/F, F,F, | F, [B,,F,]3- | %16
[M:4/4] [B,,F,] B,,2 F,,- F,,/ z/ B,,2 F,,- | F,, B,,2 F,,- F,,/ z/ F,, E,,D,, | %18
 C,, F,,2 C,,- C,,/ z/ F,,2 C,,- | C,,F,,E,,D,, C,,B,,,A,,,G,,, | %20
 F,,, B,,2 F,,- F,,/ z/ B,,2 F,,- | F,, B,,2 D,,- D,,/ z/ E,, D,,C,,- | C,,=E, E,2 E,/E,/F, F,F, | %23
 E, F,2 F,- F,/ z/ [B,,F,]3- | [B,,F,]2 z2 z4 |] %25

